src/images/technologies/bootstrap.svg

<svg width="168" height="168" viewBox="0 0 168 168" fill="none" xmlns="http://www.w3.org/2000/svg">
<path d="M45.0747 54.4549C44.8853 49.0157 49.1231 44 54.8514 44H113.548C119.276 44 123.514 49.0157 123.325 54.4549C123.143 59.6798 123.379 66.448 125.082 71.9667C126.791 77.5024 129.673 81.0014 134.392 81.451V86.549C129.673 86.9986 126.791 90.4976 125.082 96.0333C123.379 101.552 123.143 108.32 123.325 113.545C123.514 118.984 119.276 124 113.548 124H54.8514C49.1231 124 44.8853 118.984 45.0749 113.545C45.2567 108.32 45.0204 101.552 43.3169 96.0333C41.6082 90.4976 38.7196 86.9986 34 86.549V81.451C38.7194 81.0014 41.6082 77.5024 43.3169 71.9667C45.0204 66.448 45.2567 59.6798 45.0747 54.4549Z" fill="url(#paint0_linear_2051_2296)"/>
<g filter="url(#filter0_d_2051_2296)">
<path d="M86.3732 105.266C95.6471 105.266 101.236 100.725 101.236 93.2357C101.236 87.5743 97.2481 83.4757 91.3273 82.8269V82.591C95.6773 81.8833 99.0908 77.8437 99.0908 73.3324C99.0908 66.9043 94.0159 62.7171 86.2826 62.7171H68.8826V105.266H86.3732ZM75.6492 68.1131H84.6514C89.5451 68.1131 92.3241 70.2951 92.3241 74.2463C92.3241 78.463 89.092 80.8218 83.2316 80.8218H75.6492V68.1131ZM75.6492 99.8702V85.8641H84.5908C90.9949 85.8641 94.3179 88.223 94.3179 92.823C94.3179 97.4228 91.0857 99.8702 84.9835 99.8702H75.6492Z" fill="url(#paint1_linear_2051_2296)"/>
<path d="M86.3732 105.266C95.6471 105.266 101.236 100.725 101.236 93.2357C101.236 87.5743 97.2481 83.4757 91.3273 82.8269V82.591C95.6773 81.8833 99.0908 77.8437 99.0908 73.3324C99.0908 66.9043 94.0159 62.7171 86.2826 62.7171H68.8826V105.266H86.3732ZM75.6492 68.1131H84.6514C89.5451 68.1131 92.3241 70.2951 92.3241 74.2463C92.3241 78.463 89.092 80.8218 83.2316 80.8218H75.6492V68.1131ZM75.6492 99.8702V85.8641H84.5908C90.9949 85.8641 94.3179 88.223 94.3179 92.823C94.3179 97.4228 91.0857 99.8702 84.9835 99.8702H75.6492Z" stroke="white"/>
</g>
<defs>
<filter id="filter0_d_2051_2296" x="52.3826" y="50.2171" width="65.3529" height="75.549" filterUnits="userSpaceOnUse" color-interpolation-filters="sRGB">
<feFlood flood-opacity="0" result="BackgroundImageFix"/>
<feColorMatrix in="SourceAlpha" type="matrix" values="0 0 0 0 0 0 0 0 0 0 0 0 0 0 0 0 0 0 127 0" result="hardAlpha"/>
<feOffset dy="4"/>
<feGaussianBlur stdDeviation="8"/>
<feColorMatrix type="matrix" values="0 0 0 0 0 0 0 0 0 0 0 0 0 0 0 0 0 0 0.15 0"/>
<feBlend mode="normal" in2="BackgroundImageFix" result="effect1_dropShadow_2051_2296"/>
<feBlend mode="normal" in="SourceGraphic" in2="effect1_dropShadow_2051_2296" result="shape"/>
</filter>
<linearGradient id="paint0_linear_2051_2296" x1="48.9175" y1="46.1173" x2="136.643" y2="115.754" gradientUnits="userSpaceOnUse">
<stop stop-color="#9013FE"/>
<stop offset="1" stop-color="#6610F2"/>
</linearGradient>
<linearGradient id="paint1_linear_2051_2296" x1="71.9428" y1="65.5177" x2="91.5518" y2="98.6808" gradientUnits="userSpaceOnUse">
<stop stop-color="white"/>
<stop offset="1" stop-color="#F1E5FC"/>
</linearGradient>
</defs>
</svg>

<svg xmlns="http://www.w3.org/2000/svg" width="168" height="168" fill="none"><path fill="url(#a)" d="M45.075 54.455C44.885 49.015 49.123 44 54.85 44h58.697c5.728 0 9.966 5.016 9.777 10.455-.182 5.225.054 11.993 1.757 17.512 1.709 5.535 4.591 9.034 9.31 9.484v5.098c-4.719.45-7.601 3.949-9.31 9.484-1.703 5.519-1.939 12.287-1.757 17.512.189 5.439-4.049 10.455-9.777 10.455H54.851c-5.728 0-9.966-5.016-9.776-10.455.182-5.225-.055-11.993-1.758-17.512C41.608 90.498 38.72 87 34 86.55v-5.098c4.72-.45 7.608-3.949 9.317-9.484 1.703-5.519 1.94-12.287 1.758-17.512Z"/><g filter="url(#b)"><path fill="url(#c)" d="M86.373 105.266c9.274 0 14.863-4.541 14.863-12.03 0-5.662-3.988-9.76-9.909-10.41v-.235c4.35-.708 7.764-4.747 7.764-9.259 0-6.428-5.075-10.615-12.808-10.615h-17.4v42.549h17.49ZM75.65 68.113h9.002c4.894 0 7.673 2.182 7.673 6.133 0 4.217-3.232 6.576-9.092 6.576h-7.583V68.113Zm0 31.757V85.864h8.942c6.404 0 9.727 2.359 9.727 6.959s-3.232 7.047-9.334 7.047h-9.335Z"/><path stroke="#fff" d="M86.373 105.266c9.274 0 14.863-4.541 14.863-12.03 0-5.662-3.988-9.76-9.909-10.41v-.235c4.35-.708 7.764-4.747 7.764-9.259 0-6.428-5.075-10.615-12.808-10.615h-17.4v42.549h17.49ZM75.65 68.113h9.002c4.894 0 7.673 2.182 7.673 6.133 0 4.217-3.232 6.576-9.092 6.576h-7.583V68.113Zm0 31.757V85.864h8.942c6.404 0 9.727 2.359 9.727 6.959s-3.232 7.047-9.334 7.047h-9.335Z"/></g><defs><linearGradient id="a" x1="48.917" x2="136.643" y1="46.117" y2="115.754" gradientUnits="userSpaceOnUse"><stop stop-color="#9013FE"/><stop offset="1" stop-color="#6610F2"/></linearGradient><linearGradient id="c" x1="71.943" x2="91.552" y1="65.518" y2="98.681" gradientUnits="userSpaceOnUse"><stop stop-color="#fff"/><stop offset="1" stop-color="#F1E5FC"/></linearGradient><filter id="b" width="65.353" height="75.549" x="52.383" y="50.217" color-interpolation-filters="sRGB" filterUnits="userSpaceOnUse"><feFlood flood-opacity="0" result="BackgroundImageFix"/><feColorMatrix in="SourceAlpha" result="hardAlpha" values="0 0 0 0 0 0 0 0 0 0 0 0 0 0 0 0 0 0 127 0"/><feOffset dy="4"/><feGaussianBlur stdDeviation="8"/><feColorMatrix values="0 0 0 0 0 0 0 0 0 0 0 0 0 0 0 0 0 0 0.15 0"/><feBlend in2="BackgroundImageFix" result="effect1_dropShadow_2051_2296"/><feBlend in="SourceGraphic" in2="effect1_dropShadow_2051_2296" result="shape"/></filter></defs></svg>
